chinasouthernairlines.svg

<svg viewBox="0 0 8 8" version="1.1" xmlns="http://www.w3.org/2000/svg" xmlns:xlink="http://www.w3.org/1999/xlink">
    <title>Group</title>
    <g id="Page-1" stroke="none" stroke-width="1" fill="none" fill-rule="evenodd">
        <g id="Group" fill-rule="nonzero">
            <polygon id="polygon6238" fill="#0093D0" points="0 5.70601336 5.71046771 5.70601336 8 0 8 0 5.71046771 0"></polygon>
            <path d="M5.32293987,2.19599109 C5.23385301,2.15144766 5.17594655,2.0623608 5.17594655,1.95991091 C5.17594655,1.81737194 5.29175947,1.69710468 5.43875278,1.69710468 C5.58129176,1.69710468 5.70155902,1.81291759 5.70155902,1.95991091 C5.70155902,2.0623608 5.63919822,2.155902 5.55011136,2.19599109 L5.55011136,2.27171492 C5.63028953,2.28062361 5.72828508,2.31180401 5.79064588,2.34298441 C5.81737194,2.33853007 5.85300668,2.33853007 5.88864143,2.33853007 C6.21826281,2.33853007 6.44988864,2.55679287 6.44988864,2.85523385 C6.44988864,3.04231626 6.28507795,3.21158129 6.09799555,3.21158129 C5.91091314,3.21158129 5.74164811,3.02895323 5.77728285,2.84187082 C5.77728285,2.84187082 5.75946548,2.90423163 5.75946548,2.9844098 C5.75946548,3.03340757 5.75946548,3.92873051 5.75946548,3.92873051 C5.75055679,4.03563474 5.60801782,4.62806236 4.93986637,4.62806236 C4.27171492,4.62806236 4.12917595,4.03563474 4.12026726,3.92873051 C4.12026726,3.92873051 4.12026726,3.03340757 4.12026726,2.9844098 C4.12026726,2.90868597 4.09799555,2.84187082 4.09799555,2.84187082 C4.13363029,3.02004454 3.95991091,3.21158129 3.77728285,3.21158129 C3.59020045,3.21158129 3.42538976,3.04231626 3.42538976,2.85523385 C3.42538976,2.55679287 3.65701559,2.33853007 3.98663697,2.33853007 C4.02227171,2.33853007 4.05790646,2.33853007 4.08463252,2.34298441 C4.14253898,2.31180401 4.24498886,2.27616927 4.32516704,2.27171492 L4.32516704,2.19599109 C4.23608018,2.15144766 4.17817372,2.0623608 4.17817372,1.95991091 C4.17817372,1.81737194 4.29398664,1.69710468 4.44097996,1.69710468 C4.58797327,1.69710468 4.70378619,1.81291759 4.70378619,1.95991091 C4.70378619,2.0623608 4.64142539,2.155902 4.55233853,2.19599109 L4.55233853,2.29398664 C4.57461024,2.30289532 4.59688196,2.30734967 4.61915367,2.32071269 C4.65924276,2.23162584 4.73942094,2.16481069 4.83296214,2.13363029 L4.83296214,2.05345212 C4.74387528,2.01336303 4.68151448,1.91982183 4.68151448,1.81737194 C4.68151448,1.67483296 4.79732739,1.5545657 4.94432071,1.5545657 C5.08685969,1.5545657 5.20712695,1.67037862 5.20712695,1.81737194 C5.20712695,1.91982183 5.14476615,2.01336303 5.06013363,2.05345212 L5.06013363,2.13363029 C5.15367483,2.16481069 5.23385301,2.23162584 5.27394209,2.32071269 C5.29621381,2.31180401 5.31848552,2.30289532 5.34075724,2.29398664 L5.32293987,2.19599109 L5.32293987,2.19599109 L5.32293987,2.19599109 Z" id="path6240" fill="#FFFFFF"></path>
            <path d="M6.33853007,2.8596882 C6.33853007,2.61469933 6.17371938,2.41870824 5.83073497,2.41870824 C5.60356347,2.41870824 5.3363029,2.61024499 5.3363029,3.09576837 C5.3363029,3.47438753 5.3363029,3.81737194 5.3363029,3.81737194 C5.43429844,3.75055679 5.57238307,3.69265033 5.64365256,3.69265033 C5.64365256,3.47884187 5.64365256,3.05567929 5.64365256,3.02004454 C5.64365256,2.76169265 5.83073497,2.68596882 5.91536748,2.68596882 C5.86636971,2.73051225 5.83518931,2.78396437 5.83518931,2.8596882 C5.83518931,2.99777283 5.94654788,3.1091314 6.08463252,3.1091314 C6.22717149,3.1091314 6.33407572,3.00668151 6.33853007,2.8596882 L6.33853007,2.8596882 Z" id="path6242" fill="#ED1B2F"></path>
            <path d="M3.51893096,2.8596882 C3.51893096,2.61469933 3.68374165,2.41870824 4.02672606,2.41870824 C4.25389755,2.41870824 4.52561247,2.61024499 4.52561247,3.09576837 C4.52561247,3.47438753 4.52561247,3.81737194 4.52561247,3.81737194 C4.42761693,3.75055679 4.28953229,3.69265033 4.21826281,3.69265033 C4.21826281,3.47884187 4.21826281,3.05567929 4.21826281,3.02004454 C4.21826281,2.76169265 4.0311804,2.68596882 3.94654788,2.68596882 C3.99554566,2.73051225 4.02672606,2.78396437 4.02672606,2.8596882 C4.02672606,2.99777283 3.91091314,3.1091314 3.77728285,3.1091314 C3.63028953,3.1091314 3.5233853,3.00668151 3.51893096,2.8596882 L3.51893096,2.8596882 Z" id="path6244" fill="#ED1B2F"></path>
            <path d="M4.93095768,4.52561247 C5.50111359,4.52561247 5.63028953,4.04899777 5.6481069,3.92427617 C5.6481069,3.92427617 5.6481069,3.79064588 5.6481069,3.76391982 C5.46993318,3.80846325 5.31403118,3.90200445 5.20712695,4.04454343 C5.1714922,3.87973274 5.06458797,3.74164811 4.93095768,3.6481069 C4.79732739,3.73719376 4.69487751,3.87973274 4.65478842,4.04454343 C4.54788419,3.90200445 4.39198218,3.80846325 4.21380846,3.76391982 C4.21380846,3.79064588 4.21380846,3.92427617 4.21380846,3.92427617 C4.22717149,4.04899777 4.35634744,4.52561247 4.93095768,4.52561247 L4.93095768,4.52561247 Z" id="path6246" fill="#ED1B2F"></path>
            <path d="M4.97104677,2 L4.97104677,2.20044543 C5.06904232,2.21380846 5.15367483,2.28062361 5.18485523,2.36080178 C5.06904232,2.43652561 4.97550111,2.55233853 4.93095768,2.69487751 C4.88641425,2.55233853 4.79287305,2.43652561 4.67706013,2.36080178 C4.71269488,2.28062361 4.79287305,2.21380846 4.8908686,2.20044543 L4.8908686,2 C4.81069042,1.98218263 4.74832962,1.9064588 4.74832962,1.82182628 C4.74832962,1.71937639 4.83296214,1.63919822 4.93095768,1.63919822 C5.03340757,1.63919822 5.11358575,1.71937639 5.11358575,1.82182628 C5.11358575,1.9064588 5.05122494,1.98218263 4.97104677,2 L4.97104677,2 L4.97104677,2 Z" id="path6248" fill="#ED1B2F"></path>
            <path d="M4.46770601,2.14253898 L4.46770601,2.3518931 C4.71714922,2.40089087 4.89532294,2.6636971 4.89532294,2.90868597 C4.89532294,3.16703786 4.89532294,3.5857461 4.89532294,3.5857461 C4.77951002,3.65256125 4.6636971,3.79064588 4.62806236,3.90200445 C4.61915367,3.89309577 4.61024499,3.87973274 4.59688196,3.87082405 C4.59688196,3.87082405 4.59688196,3.37639198 4.59688196,2.99777283 C4.59688196,2.73496659 4.45434298,2.46770601 4.20489978,2.3830735 C4.20489978,2.3830735 4.28507795,2.34743875 4.38752784,2.34743875 L4.38752784,2.13808463 C4.30734967,2.12026726 4.24498886,2.04899777 4.24498886,1.95991091 C4.24498886,1.85746102 4.32516704,1.77728285 4.42761693,1.77728285 C4.53006682,1.77728285 4.61024499,1.85746102 4.61024499,1.95991091 C4.61024499,2.04899777 4.54788419,2.12026726 4.46770601,2.14253898 L4.46770601,2.14253898 Z" id="path6250" fill="#ED1B2F"></path>
            <path d="M5.47438753,2.14253898 L5.47438753,2.34743875 C5.57683742,2.34743875 5.65701559,2.3830735 5.65701559,2.3830735 C5.40311804,2.47216036 5.26503341,2.73942094 5.26503341,2.99777283 C5.26503341,3.37639198 5.26503341,3.87082405 5.26503341,3.87082405 C5.25167038,3.88418708 5.24276169,3.89309577 5.23385301,3.90200445 C5.19821826,3.78619154 5.08240535,3.6481069 4.96659243,3.5857461 C4.96659243,3.5857461 4.96659243,3.16703786 4.96659243,2.90868597 C4.96659243,2.6636971 5.14476615,2.40089087 5.39420935,2.3518931 L5.39420935,2.13808463 C5.31403118,2.12026726 5.25167038,2.04899777 5.25167038,1.95991091 C5.25167038,1.85746102 5.33184855,1.77728285 5.43429844,1.77728285 C5.53674833,1.77728285 5.6169265,1.85746102 5.6169265,1.95991091 C5.62138085,2.04899777 5.55902004,2.1247216 5.47438753,2.14253898 L5.47438753,2.14253898 L5.47438753,2.14253898 Z" id="path6252" fill="#ED1B2F"></path>
        </g>
    </g>
</svg>

<svg viewBox="0 0 8 8" xmlns="http://www.w3.org/2000/svg"><g fill-rule="nonzero" fill="none"><path fill="#0093D0" d="M0 5.706h5.71L8 0H5.71z"/><path d="M5.323 2.196a.263.263 0 1 1 .379-.236.262.262 0 0 1-.152.236v.076c.08.009.178.04.24.071.027-.004.063-.004.099-.004.33 0 .56.218.56.516a.366.366 0 0 1-.351.357c-.187 0-.356-.183-.32-.37 0 0-.019.062-.019.142v.945c-.008.107-.151.7-.82.7-.667 0-.81-.593-.819-.7v-.945a.507.507 0 0 0-.022-.142c.036.178-.138.37-.32.37a.366.366 0 0 1-.353-.357c0-.298.232-.516.562-.516.035 0 .07 0 .098.004a.661.661 0 0 1 .24-.071v-.076a.263.263 0 0 1 .116-.499.262.262 0 0 1 .111.499v.098c.023.009.045.013.067.027.04-.09.12-.156.214-.187v-.08a.262.262 0 0 1 .111-.5.263.263 0 0 1 .116.5v.08a.356.356 0 0 1 .214.187c.022-.01.044-.018.067-.027l-.018-.098Z" fill="#FFF"/><path d="M6.339 2.86c0-.245-.165-.441-.508-.441-.227 0-.495.191-.495.677v.721c.098-.066.236-.124.308-.124V3.02c0-.258.187-.334.271-.334a.223.223 0 0 0-.08.174c0 .138.112.25.25.25.142 0 .25-.103.254-.25ZM3.519 2.86c0-.245.165-.441.508-.441.227 0 .499.191.499.677v.721c-.098-.066-.236-.124-.308-.124V3.02c0-.258-.187-.334-.271-.334.049.045.08.098.08.174 0 .138-.116.25-.25.25a.248.248 0 0 1-.258-.25Z" fill="#ED1B2F"/><path d="M4.931 4.526c.57 0 .7-.477.717-.602v-.16a.776.776 0 0 0-.44.28.665.665 0 0 0-.277-.396.67.67 0 0 0-.276.397.776.776 0 0 0-.441-.281v.16a.688.688 0 0 0 .717.602ZM4.971 2v.2c.098.014.183.08.214.16a.622.622 0 0 0-.254.335.622.622 0 0 0-.254-.334.279.279 0 0 1 .214-.16V2a.186.186 0 0 1-.143-.178c0-.103.085-.183.183-.183a.18.18 0 0 1 .183.183c0 .084-.063.16-.143.178Z" fill="#ED1B2F"/><path d="M4.468 2.143v.209c.25.049.427.312.427.557v.677a.651.651 0 0 0-.267.316c-.009-.009-.018-.022-.031-.031v-.873c0-.263-.143-.53-.392-.615 0 0 .08-.036.183-.036v-.209a.182.182 0 0 1-.143-.178.18.18 0 0 1 .183-.183.18.18 0 0 1 .182.183c0 .089-.062.16-.142.183ZM5.474 2.143v.204c.103 0 .183.036.183.036-.254.09-.392.356-.392.615v.873l-.031.031a.615.615 0 0 0-.267-.316v-.677c0-.245.178-.508.427-.557v-.214a.182.182 0 0 1-.142-.178.18.18 0 0 1 .182-.183.18.18 0 0 1 .183.183.178.178 0 0 1-.143.183Z" fill="#ED1B2F"/></g></svg>
